cmd/conneroh/_static/dist/svg/figma.svg

<svg height="18" viewBox="0 0 18 18" width="18" xmlns="http://www.w3.org/2000/svg"><g fill="none" stroke="#fff" stroke-linecap="round" stroke-linejoin="round" stroke-width="2" transform="scale(.75)"><path d="m5 5.5c0-1.932292 1.567708-3.5 3.5-3.5h3.5v7h-3.5c-1.932292 0-3.5-1.567708-3.5-3.5m7-3.5h3.5c1.932292 0 3.5 1.567708 3.5 3.5s-1.567708 3.5-3.5 3.5h-3.5zm0 0"/><path d="m12 12.5c0-1.932292 1.567708-3.5 3.5-3.5s3.5 1.567708 3.5 3.5-1.567708 3.5-3.5 3.5-3.5-1.567708-3.5-3.5m-7 7c0-1.932292 1.567708-3.5 3.5-3.5h3.5v3.5c0 1.932292-1.567708 3.5-3.5 3.5s-3.5-1.567708-3.5-3.5m0-7c0-1.932292 1.567708-3.5 3.5-3.5h3.5v7h-3.5c-1.932292 0-3.5-1.567708-3.5-3.5"/></g></svg>

<svg xmlns="http://www.w3.org/2000/svg" width="24" height="24" fill="none" stroke="white" stroke-linecap="round" stroke-linejoin="round" stroke-width="2">
    <path d="M5 5.5A3.5 3.5 0 0 1 8.5 2H12v7H8.5A3.5 3.5 0 0 1 5 5.5M12 2h3.5a3.5 3.5 0 1 1 0 7H12z"/>
    <path d="M12 12.5a3.5 3.5 0 1 1 7 0 3.5 3.5 0 1 1-7 0m-7 7A3.5 3.5 0 0 1 8.5 16H12v3.5a3.5 3.5 0 1 1-7 0m0-7A3.5 3.5 0 0 1 8.5 9H12v7H8.5A3.5 3.5 0 0 1 5 12.5"/>
</svg>
